X:1
T:The Pre-Eternal Council
T:The Pre-Eternal Council
T:Op. 40-2 Совет Предвечный (Sovet prevechnii)
T:Pavel Chesnokov (1877-1944) 
T:Annunciation of the Blessed Virgin Mary, the Great Vespers, 1st stichera on “Lord's Appeals” 
T:Gabriel stood before thee, O Maiden, Revealing the pre-eternal counsel, Saluting thee and exclaiming: "Rejoice, O earth unsown! Rejoice, O bush unburnt! Rejoice, O depth hard to fathom! Rejoice, O bridge leading to the heavens and lofty ladder, which Jacob beheld! Rejoice, O divine jar of Manna! Rejoice, annulment of the curse! Rejoice, restoration of Adam: the Lord is with thee!
T:Sovet prevechnyi otkryvaya Tebe Otrokovice, Gavriil predsta, Tebe lobzaya i veshaya: “Raduisya, zemle nenaseyannaya: Raduisya, kupino neopalimaya: Raduisya, glubino neudobozrimaya: Raduisya, moste k Nebesem privodyai, i lestvice vysokaya, yuzhe Iakov vide: Raduisya, Bozhestvennaya stamno manny: Raduisya, razreshenie klyatvy: Raduisya, Adamovo vozzvanie, s Toboyu Gospod’ “ 
T:Совет превечный открывая Тебе Отроковице, Гавриил предста, Тебе лобзая и вещая: радуйся, земле ненасеянная; радуйся, купино неопалимая; радуйся, глубино неудобозримая; радуйся, мосте, к Небесем преводяй, и лествице высокая, юже Иаков виде: радуйся, Божественная стамно манны; радуйся, разрешение клятвы; радуйся, Адамово воззвание: с Тобою Господь.
C:Pavel Chesnokov (1877-1944)
%%score 1 ( 2 3 ) ( 4 5 ) { ( 6 7 ) | ( 8 9 ) }
L:1/8
Q:1/4=56
M:3/4
K:Eb
V:1 bass nm="Bass solist" snm="B."
V:2 treble-8 nm="Tenor" snm="T."
V:3 treble-8 
V:4 bass nm="Bass" snm="B."
V:5 bass 
V:6 treble nm="Piano \n(For rehearsal)" snm="Pno."
V:7 treble 
V:8 bass 
V:9 bass 
V:1
"^Lento" z2 | z6 | z6 |[M:4/4] z8 |[M:3/4] z6 | z6 | z6 | z6 | z6 | z6 |!f! G,3 C, C, C, | %11
w: ||||||||||Ра- дуй- ся, зем-|
w: ||||||||||Ra- duy- sya, zem-|
 D,4 G,, G,, | (C,3 E,) D, C, | (C,2 =B,,2) z2 | G,2 C, C, C, C, | A,3 G, E, F, | G,3 E, E,2 | %17
w: ле не- на-|се- * ян- на-|я! *|Ра- дуй- ся, ку- пи-|но не- о- па-|ли- ма- я,|
w: le ne- na-|se- * yan- na-|ya! *|Ra- duy- sya, ku- pi-|no ne- o- pa-|li- ma- ya,|
 D,2 C, C, F, E, | D,2 D, D, E, D, | C,3 C, C,2 | z6 | z2 G,,4- |!>(! G,,3 C, C,2!>)! | z6 | %24
w: ра- дуй- ся, глу- би-|но не- у- до- бо-|зри- ма- я!||Ра-|* дуй- ся||
w: ra- duy- sya, glu- bi-|no ne- u- do- bo-|zri- ma- ya!||Ra-|* duy- sya||
!f! G,3 E, E,2 | F,2 C,2 D, E, | F,4 E, D, | E,3 z F,2 | G,3 G, G, G, | G,3 G, G,2 | %30
w: Ра- дуй- ся,|мос- те, к~не- бе-|сем пре- во-|дяй, и|лест- ви- це вы-|со- ка- я,|
w: Ra- duy- sya,|mos- te, k Ne- be-|sem pre- vo-|dyay, i-|lest- vi- ce vy-|so- ka- ya,|
 G,2 G, G, G, G, | G,2 G,2 z2 | z6 | G,3 C, C, C, | D,2 D, D, G,,2 | (C,3 E,) (D,C,) | %36
w: ю- же И- а- ков|ви- де.||Ра- дуй- ся, Бо-|жест- вен- на- я|ста- * мно *|
w: yu- zhe I- a- kov|vi- de||Ra- duy- sya, Bo-|zhest- ven- na- ya|sta- * mno *|
 C,2 =B,,2 z2 | G,2 C, C, C, C, | (A,3 G,) E, F, | G,2 E,2 z2 | D,3 D, E, D, | C,3 C, F, E, | %42
w: ман- ны,|ра- дуй- ся, раз- ре-|ше- * ни- е|клят- вы,|ра- дуй- ся, А-|да- мо- во воз-|
w: man- ny,|ra- duy- sya, raz- re-|she- * ni- e|klyat- vy,|ra- duy- sya, A-|da- mo- vo voz-|
 D,3 D, D, D, | C,4 C, C, | C,4- C, z | z2 G,,4 | G,,4 C, C, | C,6- | C,6- | C,2- C, z z2 |] %50
w: зва- ни- е, с~То-|бо- ю Гос-|подь, *|с~То-|бо- ю Гос-|подь!|||
w: zva- ni- e, s To-|bo- yu Gos-|pod' *|s To-|bo- yu Gos-|pod'!|||
V:2
!p! G2 | G4 G2 | G2 G2 G G |[M:4/4] c2 c c F F E F |[M:3/4] G2 G2 G G |!<(! G4 G2!<)! | %6
w: Со-|вет Пре-|веч- ный от- кры-|ва- я Те- бе От- ро- ко-|ви- це, Гав- ри-|ил пред-|
w: So-|vet pre-|vech- nyy ot- kry-|va- ya Te- be Ot- ro- ko-|vi- ce, Gav- ri-|il pred-|
 A2- A z A2 | B4!<(! B2 | c2!<)! c2!<(! c c!<)! |!mf!!>(! e4!>)!!p! d2 | z2!p! (G4 | G) G G4 | %12
w: ста, * Те-|бе лоб-|за- я и ве-|ща- я:|Ра-|* дуй- ся,|
w: sta, * Te|be lob-|za- ya i ve-|sha- ya:|Ra-|* duy- sya,|
 (G2 F2 ^F2 | G3) G G2 | (B6 | A) A A2 (c2 | B2) B2 B2 | (A4- Ac- | c) c c2 (=B2 | c6- | c3) c c2 | %21
w: ра- * *|* дуй- ся,|ра-|* дуй- ся, ра-|* дуй- ся,|ра- * *|* дуй- ся, ра-||* дуй- ся,|
w: ra- * *|* duy- sya|ra-|* duy- sya ra-|* duy- sya|ra- * *|* duy- sya ra-||* duy- sya,|
 (c4 =B2 | c2) G2 G2 |!mf! G3 G!>(! G2- | G!>)! z!p! (G4 | A3) A A2 | (A2 c4- | c)B B2- B z | %28
w: ра- *|* дуй- ся!|Ра- дуй- ся,|* ра-|* дуй- ся,|ра- *|* * ся, *|
w: ra- *|* duy- sya!|Ra- duy- sya,|* ra-|* duy- sya,|ra- *|* * sya, *|
 z2!p! (=B4 | =A2) A2 A2 |!<(! (G4 c2 | =B3) B c2!<)! |!mf! d3!>(! d d2!>)! | z2!p! (G4 | G) G G4 | %35
w: ра-|* дуй- ся,|ра- *|* дуй- ся,|ра- дуй- ся!|Ра-|* дуй- ся,|
w: ra-|* duy- sya,|ra _|_ duy- sya,|ra duy- sya!|Ra-|* duy- sya,|
 (G2 F2 ^F2 | G3) G G2 | (B6 | A) A A2 ((c2 | B3)) B B2 | z2 A4- | A A A2 (Ac | c) c c2 (=B2 | %43
w: ра- * *|* дуй- ся,|ра-|* дуй- ся, ра-|* дуй- ся!|Ра-|* дуй- ся, ра- *|* дуй- ся, ра-|
w: ra- * *|* duy- sya,|ra-|* duy- sya ra-|* duy- sya!|Ra-|* duy- sya, ra- *|* duy- sya, ra-|
 c6- | c3) c c2 | (c4 =B2 | c3)!<(! G G2!<)! |!>(! (A6 | G3)!>)! G G2- |!>(! G2- G!>)! z z2 |] %50
w: |* дуй- ся,|ра- *|* дуй- ся,|ра-|* дуй- ся!||
w: |* duy- sya,|ra- *|* duy- sya,|ra-|* duy- sya!||
V:3
 G2 | G4 G2 | G2 G2 G G |[M:4/4] G2 G G F F E D |[M:3/4] D2 D2 D D | =E4 E2 | F2- F x F2 | G4 G2 | %8
 A2 A2 A A | c4 =B2 | x2 G4 | G G G4 | (G2 F2 ^F2 | G3) G G2 | (G6 | F) F F2 A2 | G2 G2 G2 | %17
 (C4 DE | F) F F2 F2 | (E2 A2 G2 | ^F3) F F2 | (F6 | E2) E2 E2 | E3 E E2- | E x G4 | A3 A A2 | %26
 (A6 | G)G G2- G x | x2 (G4 | G2) G2 G2 | (G6 | G3) G A2 | =B3 B B2 | z2 (G4 | G) G G4 | %35
 (G2 F2 ^F2 | G3) G G2 | (G6 | F) F F2 (A2 | G3) G G2 | x2 C4- | C C C2 (DE | E) F F2 (F2 | %43
 E2 A2 G2 | ^F3) F F2 | (F6 | E3) E E2 | (D6 | E3) E E2- | E2- E x3 |] %50
V:4
!p! E,2 | E,4 E,2 | D,2 D,2 D, D, |[M:4/4] C,2 C, C, C, C, C, C, |[M:3/4] C,2 =B,,2 B,, B,, | %5
!<(! C,4 C,2!<)! | C,2- C, z C,2 | E,4!<(! E,2 | E,2!<)! E,2!<(! E, E,!<)! | %9
!mf!!>(! G,4!>)!!p! F,2 | z2!p! (E,4 | D,) D, D,4 | (C,4- C,D,- | D,3) D, D,2 | (C,6 | %15
 C,) C, C,2 (B,,2 | E,2) E,2 E,2 | (F,,6 | G,,) G,, G,,2 ((G,,2 | A,,6 | =A,,3)) A,, A,,2 | (D,6 | %22
 C,2) C,2 C,2 |!mf! B,,3!>(! B,, B,,2- | B,,!>)! z!p! B,,4- | B,,3 B,, B,,2 | B,,6- | %27
 B,,B,, B,,2- B,, z | z2!p! (F,4 | E,2) E,2 E,2 |!<(! (D,4 C,2 | D,3) D, D,2!<)! | %32
!mf! G,3!>(! F, F,2!>)! | z2!p! (E,4 | D,) D, D,4 | (C,4- C,D,- | D,3) D, D,2 | C,6- | %38
 C, C, C,2 ((B,,2 | B,,3)) B,, B,,2 | z2 F,,4- | F,, F,, F,,2 (F,,2 | G,,) G,, G,,2 (G,,2 | A,,6 | %44
 =A,,3) A,, A,,2 | (D,6 | C,3)!<(! C, C,2!<)! |!>(! (C,6 | C,3)!>)! C, C,2- | %49
!>(! C,2- C,!>)! z z2 |] %50
V:5
 C,2 | C,4 C,2 | B,,2 B,,2 B,, B,, |[M:4/4] A,,2 A,, A,, A,, A,, A,, A,, | %4
[M:3/4] G,,2 G,,2 G,, G,, | C,4 C,2 | F,,2- F,, x F,,2 | E,,4 E,,2 | A,,2 A,,2 A,, A,, | %9
 G,,4 G,,2 | x2 (C,4 | B,,) B,, B,,4 | (A,,6 | G,,3) G,, F,,2 | (=E,,6 | F,,) F,, F,,2 (B,,2 | %16
 E,,2) E,,2 E,,2 | (F,,6 | G,,) G,, G,,2 (G,,2 | A,,6 | D,,3) D,, D,,2 | (G,,6 | C,,2) C,,2 C,,2 | %23
 E,,3 E,, E,,2- | E,, x E,,4- | E,,3 E,, E,,2 | E,,6- | E,,E,, E,,2- E,, x | x2 (D,4 | %29
 C,2) C,2 C,2 | (=B,,4 =A,,2 | G,,3) G,, D,2 | G,,3 G,, G,,2 | z2 (C,4 | B,,) B,, B,,4 | (A,,6 | %36
 G,,3) G,, F,,2 | (=E,,6 | F,,) F,, F,,2 (B,,2 | E,,3) E,, E,,2 | x2 F,,4- | F,, F,, F,,2 (F,,2 | %42
 G,,) G,, G,,2 (G,,2 | A,,6 | D,,3) D,, D,,2 | (G,,6 | C,,3) C,, C,,2 | (F,,6 | C,,3) C,, C,,2- | %49
 C,,2- C,, x3 |] %50
V:6
!p! G2 | G4 G2 | G2 G2 G G |[M:4/4] c2 c c c c c c |[M:3/4] G2 G2 G G |!<(! G4 G2!<)! | %6
 A2- A z A2 | B4!<(! B2 | c2!<)! c2!<(! c c!<)! |!mf!!>(! e4!>)!!p! d2 | z2!p! (G4 | G) G G4 | %12
 (G2 F2 ^F2 | G3) G G2 | (B6 | A) A A2 (c2 | B2) B2 B2 | (A4- Ac- | c) c c2 (=B2 | c6- | c3) c c2 | %21
 (c4 =B2 | c2) G2 G2 |!mf! G3 G!>(! G2- | G!>)! z!p! (G4 | A3) A A2 | (A2 c4- | c)B B2- B z | %28
 z2!p! (=B4 | =A2) A2 A2 | (G4 c2 | =B3) B c2 | d3 d d2 | z2 (G4 | G) G G4 | (G2 F2 ^F2 | %36
 G3) G G2 | (B6 | A) A A2 ((c2 | B3)) B B2 | z2 A4- | A A A2 (Ac | c) c c2 (=B2 | c6- | c3) c c2 | %45
 (c4 =B2 | c3)!<(! G G2!<)! |!>(! (A6 | G3)!>)! G G2- |!>(! G2- G!>)! z z2 |] %50
V:7
 G2 | G4 G2 | G2 G2 G G |[M:4/4] G2 G G F F E F |[M:3/4] D2 D2 D D | =E4 E2 | F2- F x F2 | G4 G2 | %8
 A2 A2 A A | c4 =B2 | x2 G4 | G G G4 | (G2 F2 ^F2 | G3) G G2 | (G6 | F) F F2 A2 | G2 G2 G2 | %17
 (C4 DE | F) F F2 F2 | (E2 A2 G2 | ^F3) F F2 | (F6 | E2) E2 E2 | E3 E E2- | E x G4 | A3 A A2 | %26
 (A6 | G)G G2- G x | x2 (G4 | G2) G2 G2 | (G6 | G3) G A2 | =B3 B B2 | z2 (G4 | G) G G4 | %35
 (G2 F2 ^F2 | G3) G G2 | (G6 | F) F F2 (A2 | G3) G G2 | x2 C4- | C C C2 (DE | E) F F2 (F2 | %43
 E2 A2 G2 | ^F3) F F2 | (F6 | E3) E E2 | (D6 | E3) E E2- | E2- E x3 |] %50
V:8
 E,2 | E,4 E,2 | D,2 D,2 D, D, |[M:4/4] C,2 C, C, C, C, C, C, |[M:3/4] C,2 =B,,2 B,, B,, | %5
 C,4 C,2 | C,2- C, z C,2 | E,4 E,2 | E,2 E,2 E, E, | G,4 F,2 | z2 (E,4 | D,) D, D,4 | (C,4- C,D,- | %13
 D,3) D, D,2 | (C,6 | C,) C, C,2 (B,,2 | E,2) E,2 E,2 | (F,,6 | G,,) G,, G,,2 ((G,,2 | A,,6 | %20
 =A,,3)) A,, A,,2 | (D,6 | C,2) C,2 C,2 | B,,3 B,, B,,2- | B,, z B,,4- | B,,3 B,, B,,2 | B,,6- | %27
 B,,B,, B,,2- B,, z | z2 (F,4 | E,2) E,2 E,2 |!<(! (D,4 C,2 | D,3) D, D,2!<)! | %32
!mf! G,3!>(! F, F,2!>)! | z2!p! (E,4 | D,) D, D,4 | (C,4- C,D,- | D,3) D, D,2 | C,6- | %38
 C, C, C,2 ((B,,2 | B,,3)) B,, B,,2 | z2 F,,4- | F,, F,, F,,2 (F,,2 | G,,) G,, G,,2 (G,,2 | A,,6 | %44
 =A,,3) A,, A,,2 | (D,6 | C,3)!<(! C, C,2!<)! |!>(! (C,6 | C,3)!>)! C, C,2- | %49
!>(! C,2- C,!>)! z z2 |] %50
V:9
 C,2 | C,4 C,2 | B,,2 B,,2 B,, B,, |[M:4/4] A,,2 A,, A,, A,, A,, A,, A,, | %4
[M:3/4] G,,2 G,,2 G,, G,, | C,4 C,2 | F,,2- F,, x F,,2 | E,,4 E,,2 | A,,2 A,,2 A,, A,, | %9
 G,,4 G,,2 | x2 (C,4 | B,,) B,, B,,4 | (A,,6 | G,,3) G,, F,,2 | (=E,,6 | F,,) F,, F,,2 (B,,2 | %16
 E,,2) E,,2 E,,2 | (F,,6 | G,,) G,, G,,2 (G,,2 | A,,6 | D,,3) D,, D,,2 | (G,,6 | C,,2) C,,2 C,,2 | %23
 E,,3 E,, E,,2- | E,, x E,,4- | E,,3 E,, E,,2 | E,,6- | E,,E,, E,,2- E,, x | x2 (D,4 | %29
 C,2) C,2 C,2 | (=B,,4 =A,,2 | G,,3) G,, D,2 | G,,3 G,, G,,2 | z2 (C,4 | B,,) B,, B,,4 | (A,,6 | %36
 G,,3) G,, F,,2 | (=E,,6 | F,,) F,, F,,2 (B,,2 | E,,3) E,, E,,2 | x2 F,,4- | F,, F,, F,,2 (F,,2 | %42
 G,,) G,, G,,2 (G,,2 | A,,6 | D,,3) D,, D,,2 | (G,,6 | C,,3) C,, C,,2 | (F,,6 | C,,3) C,, C,,2- | %49
 C,,2- C,, x3 |] %50

